Papirus/48x48/apps/chromium-app-list.svg

<svg xmlns="http://www.w3.org/2000/svg" width="48" height="48" version="1">
 <path style="opacity:0.2" d="M 24,5 C 12.92,5 4,13.92 4,25 4,36.08 12.92,45 24,45 35.08,45 44,36.08 44,25 44,13.92 35.08,5 24,5 Z"/>
 <path d="M 24,4 C 12.92,4 4,12.92 4,24 4,35.08 12.92,44 24,44 35.08,44 44,35.08 44,24 44,12.92 35.08,4 24,4 Z" style="fill:#69a2f5"/>
 <path style="fill:#ffffff;opacity:0.2" d="M 24 4 C 12.92 4 4 12.92 4 24 C 4 24.167874 4.007647 24.333141 4.0117188 24.5 C 4.2763904 13.653863 13.087874 5 24 5 C 34.912126 5 43.72361 13.653863 43.988281 24.5 C 43.992353 24.333141 44 24.167874 44 24 C 44 12.92 35.08 4 24 4 z"/>
 <rect width="6" height="6" x="12" y="14" rx="2" ry="2" style="opacity:0.2"/>
 <rect style="opacity:0.2" width="6" height="6" x="21" y="14" rx="2" ry="2"/>
 <rect width="6" height="6" x="30" y="14" rx="2" ry="2" style="opacity:0.2"/>
 <rect style="opacity:0.2" width="6" height="6" x="12" y="22" rx="2" ry="2"/>
 <rect width="6" height="6" x="21" y="22" rx="2" ry="2" style="opacity:0.2"/>
 <rect style="opacity:0.2" width="6" height="6" x="30" y="22" rx="2" ry="2"/>
 <rect width="6" height="6" x="12" y="30" rx="2" ry="2" style="opacity:0.2"/>
 <rect style="opacity:0.2" width="6" height="6" x="21" y="30" rx="2" ry="2"/>
 <rect width="6" height="6" x="30" y="30" rx="2" ry="2" style="opacity:0.2"/>
 <g>
  <rect width="6" height="6" x="12" y="13" rx="2" ry="2" style="fill:#ffffff"/>
  <rect style="fill:#ffffff" width="6" height="6" x="21" y="13" rx="2" ry="2"/>
  <rect width="6" height="6" x="30" y="13" rx="2" ry="2" style="fill:#ffffff"/>
  <rect style="fill:#ffffff" width="6" height="6" x="12" y="21" rx="2" ry="2"/>
  <rect width="6" height="6" x="21" y="21" rx="2" ry="2" style="fill:#ffffff"/>
  <rect style="fill:#ffffff" width="6" height="6" x="30" y="21" rx="2" ry="2"/>
  <rect width="6" height="6" x="12" y="29" rx="2" ry="2" style="fill:#ffffff"/>
  <rect style="fill:#ffffff" width="6" height="6" x="21" y="29" rx="2" ry="2"/>
  <rect width="6" height="6" x="30" y="29" rx="2" ry="2" style="fill:#ffffff"/>
 </g>
</svg>

<svg xmlns="http://www.w3.org/2000/svg" width="48" height="48" version="1">
 <defs>
  <clipPath id="clipPath-211175218">
   <g transform="translate(0 -1004.4)">
    <path fill="#1890d0" d="m-24 13c0 1.105-0.672 2-1.5 2s-1.5-0.895-1.5-2 0.672-2 1.5-2 1.5 0.895 1.5 2z" transform="matrix(15.333 0 0 11.5 415 878.86)"/>
   </g>
  </clipPath>
 </defs>
 <rect fill="#69a2f5" width="39.964" height="39.964" x="-43.98" y="-43.98" rx="19.982" ry="19.982" transform="matrix(0,-1,-1,0,0,0)"/>
 <path fill="#fff" opacity=".2" d="m24 4.0182c-11.07 0-19.982 8.9119-19.982 19.982 0 0.16757-0.004 0.33299 0 0.49955 0.2644-10.837 9.08-19.483 19.982-19.483s19.718 8.6458 19.982 19.482c0.004-0.16656 0-0.33198 0-0.49955 0-11.069-8.912-19.981-19.982-19.981z"/>
 <path opacity=".2" d="m4.0117 24.5c-0.0041 0.167-0.0117 0.332-0.0117 0.5 0 11.08 8.92 20 20 20s20-8.92 20-20c0-0.168-0.008-0.333-0.012-0.5-0.264 10.846-9.076 19.5-19.988 19.5s-19.724-8.654-19.988-19.5z"/>
 <g opacity=".2" transform="translate(0,1)">
  <g clip-path="url(#clipPath-211175218)">
   <g>
    <path d="m12 13h6v6h-6m0-6"/>
    <path d="m21 13h6v6h-6m0-6"/>
    <path d="m30 13h6v6h-6m0-6"/>
    <path d="m12 21h6v6h-6m0-6"/>
    <path d="m21 21h6v6h-6m0-6"/>
    <path d="m30 21h6v6h-6m0-6"/>
    <path d="m12 29h6v6h-6m0-6"/>
    <path d="m21 29h6v6h-6m0-6"/>
    <path d="m30 29h6v6h-6m0-6"/>
   </g>
  </g>
 </g>
 <g fill="#fff">
  <g fill="#fff" clip-path="url(#clipPath-211175218)">
   <g fill="#fff">
    <path d="m12 13h6v6h-6m0-6"/>
    <path d="m21 13h6v6h-6m0-6"/>
    <path d="m30 13h6v6h-6m0-6"/>
    <path d="m12 21h6v6h-6m0-6"/>
    <path d="m21 21h6v6h-6m0-6"/>
    <path d="m30 21h6v6h-6m0-6"/>
    <path d="m12 29h6v6h-6m0-6"/>
    <path d="m21 29h6v6h-6m0-6"/>
    <path d="m30 29h6v6h-6m0-6"/>
   </g>
  </g>
 </g>
</svg>
